dist/img/svg/basket.svg

<svg width="24" height="24" viewBox="0 0 24 24" fill="none" xmlns="http://www.w3.org/2000/svg">
<path d="M21.5 3H19.2313L18.1561 6.79933M18.1561 6.79933L16 14.6694H4.20149L2.5 6.79933H18.1561ZM14 19.5795C14 20.364 14.6646 21 15.4844 21C16.3042 21 16.9688 20.364 16.9688 19.5795C16.9688 18.795 16.3042 18.159 15.4844 18.159C14.6646 18.159 14 18.795 14 19.5795ZM4.08333 19.5795C4.08333 20.364 4.74791 21 5.56771 21C6.3875 21 7.05208 20.364 7.05208 19.5795C7.05208 18.795 6.3875 18.159 5.56771 18.159C4.74791 18.159 4.08333 18.795 4.08333 19.5795Z" stroke="currentColor"/>
</svg>

<svg width="24" height="24" viewBox="0 0 24 24" fill="none" xmlns="http://www.w3.org/2000/svg"><path d="M21.5 3h-2.269l-1.075 3.8m0 0L16 14.67H4.201L2.5 6.8h15.656zM14 19.58c0 .784.665 1.42 1.484 1.42.82 0 1.485-.636 1.485-1.42 0-.785-.665-1.421-1.485-1.421-.82 0-1.484.636-1.484 1.42zm-9.917 0c0 .784.665 1.42 1.485 1.42.82 0 1.484-.636 1.484-1.42 0-.785-.664-1.421-1.484-1.421s-1.485.636-1.485 1.42z" stroke="currentColor"/></svg>
